brandFactory_export/2.Regular/Seguridad_2Regular.svg

<?xml version="1.0" encoding="UTF-8"?>
<svg width="24px" height="24px" viewBox="0 0 24 24" version="1.1" xmlns="http://www.w3.org/2000/svg" xmlns:xlink="http://www.w3.org/1999/xlink">
    <title>2.Regular/Seguridad_2Regular</title>
    <g id="Symbols" stroke="none" stroke-width="1" fill="none" fill-rule="evenodd">
        <g id="2.Regular/Seguridad_2Regular" fill="#5CB615" fill-rule="nonzero">
            <path d="M11.6857143,0.0268907563 C14.8722689,0.0268907563 17.4638655,2.4605042 17.4638655,5.4487395 L17.4638665,8.51051696 C18.0706695,8.67363867 18.5822182,8.94872054 18.9932773,9.33445378 C19.7327731,10.0302521 20.1193277,11.0487395 20.1327731,12.3596639 L20.1327731,19.6773109 C20.1159664,20.9915966 19.7327731,22.0067227 18.9932773,22.702521 C18.2806723,23.3680672 17.2722689,23.7042017 15.9915966,23.7042017 L7.1210084,23.7042017 C5.84033613,23.7042017 4.83193277,23.3647059 4.12605042,22.6991597 C3.38655462,22 3.01008403,20.9815126 3.01008403,19.6672269 L3.01344538,12.8941176 C3.01232493,12.7708683 3.01157796,12.6722689 3.01107999,12.5955805 L3.01008403,12.3697479 C3.01008403,11.0554622 3.38655462,10.0336134 4.12605042,9.33781513 C4.54068996,8.94686927 5.05971311,8.66842576 5.6776696,8.50520972 L5.6789916,5.4487395 C5.6789916,2.45714286 8.27058824,0.0268907563 11.4571429,0.0268907563 L11.6857143,0.0268907563 Z M15.994958,9.72436975 L7.1210084,9.72436975 C6.20672269,9.72436975 5.51764706,9.93613445 5.07731092,10.3495798 C4.6302521,10.7697479 4.40168067,11.4487395 4.40168067,12.3630252 C4.40168067,12.3831933 4.40357143,12.4752101 4.40451681,12.6631828 L4.40504202,12.8907563 L4.40168067,19.6672269 C4.40168067,20.5848739 4.6302521,21.2638655 5.08067227,21.687395 C5.5210084,22.1008403 6.20672269,22.312605 7.12436975,22.312605 L15.994958,22.312605 C16.9092437,22.312605 17.5983193,22.1008403 18.0420168,21.6840336 C18.4957983,21.2605042 18.7310924,20.5781513 18.7445378,19.6605042 L18.7445378,12.3731092 C18.7310924,11.4554622 18.4957983,10.7731092 18.0420168,10.3495798 C17.5983193,9.93277311 16.9092437,9.72436975 15.994958,9.72436975 Z M11.5747899,15.0386555 C12.2,15.0386555 12.7042017,15.2168067 13.0672269,15.5697479 C13.4470588,15.9361345 13.6420168,16.4537815 13.6420168,17.1058824 C13.6420168,17.7579832 13.4504202,18.2756303 13.0672269,18.6420168 C12.707563,18.994958 12.2033613,19.1731092 11.5781513,19.1731092 C10.9529412,19.1731092 10.4521008,18.994958 10.0857143,18.6420168 C9.70588235,18.2756303 9.51092437,17.7579832 9.51092437,17.1058824 C9.51092437,16.4537815 9.70252101,15.9361345 10.0823529,15.5697479 C10.4453782,15.2168067 10.9495798,15.0386555 11.5747899,15.0386555 Z M11.5781513,16.4336134 C11.0605042,16.4336134 10.9058824,16.5915966 10.9058824,17.1092437 C10.9058824,17.6268908 11.0638655,17.7815126 11.5781513,17.7815126 C12.0957983,17.7815126 12.2537815,17.6235294 12.2537815,17.1092437 C12.2537815,16.5915966 12.0957983,16.4336134 11.5781513,16.4336134 Z M11.6857143,1.41512605 L11.4571429,1.41512605 C9.03697479,1.41512605 7.07058824,3.22352941 7.07058824,5.4487395 L7.06971039,8.33297939 C7.08787429,8.33284188 7.1060941,8.33277311 7.12436975,8.33277311 L15.994958,8.33277311 L16.072084,8.33389076 L16.0722689,5.4487395 C16.0722689,3.22689076 14.102521,1.41512605 11.6857143,1.41512605 Z" id="Seguridad_2Regular"></path>
        </g>
    </g>
</svg>

<svg width="24" height="24" viewBox="0 0 24 24" xmlns="http://www.w3.org/2000/svg"><path d="M11.686.027c3.186 0 5.778 2.434 5.778 5.422V8.51c.607.163 1.118.438 1.53.823.739.696 1.125 1.715 1.139 3.026v7.317c-.017 1.315-.4 2.33-1.14 3.026-.712.665-1.72 1.001-3.001 1.001H7.12c-1.28 0-2.29-.34-2.995-1.005-.74-.699-1.116-1.717-1.116-3.032l.003-6.773a115.57 115.57 0 01-.002-.298v-.226c0-1.315.376-2.336 1.115-3.032.415-.391.934-.67 1.552-.833l.001-3.056c0-2.992 2.592-5.422 5.778-5.422h.229zm4.309 9.697H7.121c-.914 0-1.603.212-2.044.626-.447.42-.675 1.099-.675 2.013l.003.3v.228l-.003 6.776c0 .918.228 1.597.679 2.02.44.414 1.126.626 2.043.626h8.871c.914 0 1.603-.212 2.047-.629.454-.423.69-1.106.703-2.023v-7.288c-.014-.918-.25-1.6-.703-2.023-.444-.417-1.133-.626-2.047-.626zm-4.42 5.315c.625 0 1.13.178 1.492.53.38.367.575.885.575 1.537 0 .652-.192 1.17-.575 1.536-.36.353-.864.531-1.489.531-.625 0-1.126-.178-1.492-.531-.38-.366-.575-.884-.575-1.536s.192-1.17.571-1.536c.363-.353.868-.531 1.493-.531zm.003 1.395c-.517 0-.672.158-.672.675 0 .518.158.673.672.673.518 0 .676-.158.676-.673 0-.517-.158-.675-.676-.675zm.108-15.019h-.229c-2.42 0-4.386 1.809-4.386 4.034L7.07 8.333h9.002V5.45c0-2.222-1.97-4.034-4.386-4.034z" fill="#5CB615" fill-rule="nonzero"/></svg>
